X: 8
T: Phroinsias \`i Mhaonaigh's
M: 3/4
L: 1/8
R: mazurka
K: G Major
|: GA |\
B2 BA GE | DB, D2 B,D | E2 E2 CE | DB, D2 GA |
B2 BA GE | DB, D2 B,D | E2 F2 D2 | G2 G2 :|
|: GA |\
B2 B2 dB | cB c2 DF | A2 A2 dc | BA B2 GA |
B2 B2 dB | cB c2 DF | A2 Ac BA | G2 G2 :|
